Numix/16/status/indicator-keyboard-Ki-3.svg

<?xml version="1.0" encoding="UTF-8" standalone="no"?>
<svg
   xmlns:dc="http://purl.org/dc/elements/1.1/"
   xmlns:cc="http://creativecommons.org/ns#"
   xmlns:rdf="http://www.w3.org/1999/02/22-rdf-syntax-ns#"
   xmlns:svg="http://www.w3.org/2000/svg"
   xmlns="http://www.w3.org/2000/svg"
   xmlns:sodipodi="http://sodipodi.sourceforge.net/DTD/sodipodi-0.dtd"
   xmlns:inkscape="http://www.inkscape.org/namespaces/inkscape"
   viewBox="0 0 16 16"
   id="svg2"
   version="1.1"
   inkscape:version="0.91 r13725"
   sodipodi:docname="indicator-keyboard-Ki-3.svg">
  <metadata
     id="metadata14">
    <rdf:RDF>
      <cc:Work
         rdf:about="">
        <dc:format>image/svg+xml</dc:format>
        <dc:type
           rdf:resource="http://purl.org/dc/dcmitype/StillImage" />
      </cc:Work>
    </rdf:RDF>
  </metadata>
  <defs
     id="defs12" />
  <sodipodi:namedview
     pagecolor="#ffffff"
     bordercolor="#666666"
     borderopacity="1"
     objecttolerance="10"
     gridtolerance="10"
     guidetolerance="10"
     inkscape:pageopacity="0"
     inkscape:pageshadow="2"
     inkscape:window-width="640"
     inkscape:window-height="480"
     id="namedview10"
     showgrid="false"
     inkscape:zoom="14.75"
     inkscape:cx="8"
     inkscape:cy="8"
     inkscape:window-x="65"
     inkscape:window-y="24"
     inkscape:window-maximized="0"
     inkscape:current-layer="svg2" />
  <path
     style="fill:#ececec;fill-opacity:1"
     d="M 1.5996094 0 C 0.71320937 2.9605947e-16 0 0.71320937 0 1.5996094 L 0 14.400391 C 2.9605947e-16 15.286791 0.71320937 16 1.5996094 16 L 14.400391 16 C 15.286791 16 16 15.286791 16 14.400391 L 16 1.5996094 C 16 0.71320937 15.286791 0 14.400391 0 L 1.5996094 0 z M 8.8828125 4.5898438 C 9.0028125 4.5898438 9.1035 4.6308438 9.1875 4.7148438 C 9.2715 4.7928438 9.3144531 4.9010625 9.3144531 5.0390625 C 9.3144531 5.1770625 9.2715 5.2870937 9.1875 5.3710938 C 9.1035 5.4490937 9.0028125 5.4882813 8.8828125 5.4882812 C 8.7628125 5.4882812 8.6601719 5.4490937 8.5761719 5.3710938 C 8.4921719 5.2870937 8.4492187 5.1770625 8.4492188 5.0390625 C 8.4492188 4.9010625 8.4921719 4.7928438 8.5761719 4.7148438 C 8.6601719 4.6308438 8.7628125 4.5898437 8.8828125 4.5898438 z M 3.234375 4.859375 L 3.8457031 4.859375 L 3.8457031 7.765625 C 4.0737031 7.561625 4.3255625 7.3284531 4.6015625 7.0644531 C 4.8835625 6.7944531 5.1596875 6.5239063 5.4296875 6.2539062 C 5.7056875 5.9839063 5.963125 5.7264687 6.203125 5.4804688 C 6.443125 5.2344688 6.6352969 5.027375 6.7792969 4.859375 L 7.5175781 4.859375 C 7.3435781 5.045375 7.1327187 5.2673906 6.8867188 5.5253906 C 6.6407187 5.7773906 6.3795156 6.0385937 6.1035156 6.3085938 C 5.8275156 6.5785938 5.5533438 6.845375 5.2773438 7.109375 C 5.0073438 7.367375 4.762875 7.5949688 4.546875 7.7929688 C 4.720875 7.9009687 4.9074688 8.0352656 5.1054688 8.1972656 C 5.3094687 8.3532656 5.5127969 8.5287031 5.7167969 8.7207031 C 5.9267969 8.9067031 6.1320781 9.1044531 6.3300781 9.3144531 C 6.5340781 9.5184531 6.7224844 9.7255469 6.8964844 9.9355469 C 7.0764844 10.145547 7.2350469 10.348875 7.3730469 10.546875 C 7.5170469 10.744875 7.6346094 10.927703 7.7246094 11.095703 L 7.0410156 11.095703 C 6.8370156 10.783703 6.6056563 10.475922 6.3476562 10.169922 C 6.0956563 9.8639217 5.828875 9.5746875 5.546875 9.3046875 C 5.264875 9.0346875 4.9756406 8.7884062 4.6816406 8.5664062 C 4.3936406 8.3444063 4.1157031 8.1597656 3.8457031 8.0097656 L 3.8457031 11.095703 L 3.234375 11.095703 L 3.234375 4.859375 z M 8.59375 6.4433594 L 9.1796875 6.4433594 L 9.1796875 11.095703 L 8.59375 11.095703 L 8.59375 6.4433594 z M 11.398438 8.7539062 C 11.601237 8.7539062 11.773669 8.7793781 11.917969 8.8300781 C 12.066169 8.8807781 12.189609 8.953275 12.287109 9.046875 C 12.384609 9.136575 12.457106 9.2463 12.503906 9.375 C 12.550706 9.4997999 12.574219 9.6350031 12.574219 9.7832031 C 12.574219 10.021103 12.509559 10.217041 12.380859 10.369141 C 12.256059 10.517341 12.093431 10.625106 11.894531 10.691406 C 12.003731 10.718706 12.109537 10.759859 12.210938 10.818359 C 12.316237 10.872959 12.410288 10.945456 12.492188 11.035156 C 12.574088 11.120956 12.640706 11.226762 12.691406 11.351562 C 12.742106 11.476362 12.765625 11.623316 12.765625 11.791016 C 12.765625 11.962616 12.736228 12.119372 12.673828 12.263672 C 12.615328 12.407972 12.525197 12.535331 12.404297 12.644531 C 12.287297 12.749831 12.136425 12.834084 11.953125 12.896484 C 11.769825 12.954984 11.556247 12.984375 11.310547 12.984375 C 11.181847 12.984375 11.062325 12.974578 10.953125 12.955078 C 10.847825 12.939478 10.753775 12.919884 10.671875 12.896484 C 10.589975 12.873084 10.519438 12.849572 10.460938 12.826172 C 10.406338 12.802772 10.365191 12.783178 10.337891 12.767578 L 10.4375 12.427734 C 10.4609 12.443334 10.500088 12.462928 10.554688 12.486328 C 10.609288 12.509728 10.673947 12.533241 10.748047 12.556641 C 10.826047 12.576141 10.912259 12.593775 11.005859 12.609375 C 11.103359 12.624975 11.209166 12.632813 11.322266 12.632812 C 11.692766 12.632812 11.957287 12.556397 12.117188 12.404297 C 12.277088 12.248297 12.357422 12.040597 12.357422 11.779297 C 12.357422 11.607697 12.324113 11.464663 12.257812 11.351562 C 12.195412 11.238462 12.107241 11.148331 11.994141 11.082031 C 11.884941 11.011831 11.755622 10.962847 11.607422 10.935547 C 11.463122 10.904347 11.310284 10.888672 11.146484 10.888672 L 11.087891 10.888672 L 11.087891 10.574219 L 11.222656 10.574219 C 11.327956 10.574219 11.433769 10.564422 11.542969 10.544922 C 11.656069 10.521522 11.757956 10.480375 11.847656 10.421875 C 11.941256 10.363375 12.017672 10.285 12.076172 10.1875 C 12.138572 10.09 12.169922 9.9646001 12.169922 9.8125 C 12.169922 9.6838 12.148369 9.5760281 12.105469 9.4863281 C 12.062569 9.3927281 12.003787 9.3182719 11.929688 9.2636719 C 11.859488 9.2090719 11.775234 9.1698844 11.677734 9.1464844 C 11.584134 9.1191844 11.486159 9.1054687 11.380859 9.1054688 C 11.170259 9.1054688 11.005672 9.1348594 10.888672 9.1933594 C 10.771672 9.2518594 10.675662 9.3067219 10.601562 9.3574219 L 10.4375 9.0585938 C 10.4765 9.0312937 10.525484 8.9999438 10.583984 8.9648438 C 10.646384 8.9297438 10.718881 8.8964344 10.800781 8.8652344 C 10.882681 8.8340344 10.972812 8.8085625 11.070312 8.7890625 C 11.171712 8.7656625 11.281437 8.7539062 11.398438 8.7539062 z "
     id="path4" />
</svg>

<svg xmlns="http://www.w3.org/2000/svg" viewBox="0 0 16 16">
 <path d="m 1.6 0 c -0.886 0 -1.6 0.713 -1.6 1.6 l 0 12.801 c 0 0.886 0.713 1.6 1.6 1.6 l 12.801 0 c 0.886 0 1.6 -0.713 1.6 -1.6 l 0 -12.801 c 0 -0.886 -0.713 -1.6 -1.6 -1.6 l -12.801 0 z m 7.283 4.59 c 0.12 0 0.221 0.041 0.305 0.125 c 0.084 0.078 0.127 0.186 0.127 0.324 c 0 0.138 -0.043 0.248 -0.127 0.332 c -0.084 0.078 -0.185 0.117 -0.305 0.117 c -0.12 0 -0.223 -0.039 -0.307 -0.117 c -0.084 -0.084 -0.127 -0.194 -0.127 -0.332 c 0 -0.138 0.043 -0.246 0.127 -0.324 c 0.084 -0.084 0.187 -0.125 0.307 -0.125 z m -5.648 0.27 l 0.611 0 l 0 2.906 c 0.228 -0.204 0.48 -0.437 0.756 -0.701 c 0.282 -0.27 0.558 -0.541 0.828 -0.811 c 0.276 -0.27 0.533 -0.527 0.773 -0.773 c 0.24 -0.246 0.432 -0.453 0.576 -0.621 l 0.738 0 c -0.174 0.186 -0.385 0.408 -0.631 0.666 c -0.246 0.252 -0.507 0.513 -0.783 0.783 c -0.276 0.27 -0.55 0.537 -0.826 0.801 c -0.27 0.258 -0.514 0.486 -0.73 0.684 c 0.174 0.108 0.361 0.242 0.559 0.404 c 0.204 0.156 0.407 0.331 0.611 0.523 c 0.21 0.186 0.415 0.384 0.613 0.594 c 0.204 0.204 0.392 0.411 0.566 0.621 c 0.18 0.21 0.339 0.413 0.477 0.611 c 0.144 0.198 0.262 0.381 0.352 0.549 l -0.684 0 c -0.204 -0.312 -0.435 -0.62 -0.693 -0.926 c -0.252 -0.306 -0.519 -0.595 -0.801 -0.865 c -0.282 -0.27 -0.571 -0.516 -0.865 -0.738 c -0.288 -0.222 -0.566 -0.407 -0.836 -0.557 l 0 3.086 l -0.611 0 l 0 -6.236 z m 5.359 1.584 l 0.586 0 l 0 4.652 l -0.586 0 l 0 -4.652 z m 2.805 2.311 c 0.203 0 0.375 0.025 0.52 0.076 c 0.148 0.051 0.272 0.123 0.369 0.217 c 0.098 0.09 0.17 0.199 0.217 0.328 c 0.047 0.125 0.07 0.26 0.07 0.408 c 0 0.238 -0.065 0.434 -0.193 0.586 c -0.125 0.148 -0.287 0.256 -0.486 0.322 c 0.109 0.027 0.215 0.068 0.316 0.127 c 0.105 0.055 0.199 0.127 0.281 0.217 c 0.082 0.086 0.149 0.192 0.199 0.316 c 0.051 0.125 0.074 0.272 0.074 0.439 c 0 0.172 -0.029 0.328 -0.092 0.473 c -0.059 0.144 -0.149 0.272 -0.27 0.381 c -0.117 0.105 -0.268 0.19 -0.451 0.252 c -0.183 0.059 -0.397 0.088 -0.643 0.088 c -0.129 0 -0.248 -0.01 -0.357 -0.029 c -0.105 -0.016 -0.199 -0.035 -0.281 -0.059 c -0.082 -0.023 -0.152 -0.047 -0.211 -0.07 c -0.055 -0.023 -0.096 -0.043 -0.123 -0.059 l 0.1 -0.34 c 0.023 0.016 0.063 0.035 0.117 0.059 c 0.055 0.023 0.119 0.047 0.193 0.07 c 0.078 0.019 0.164 0.037 0.258 0.053 c 0.098 0.016 0.203 0.023 0.316 0.023 c 0.37 0 0.635 -0.076 0.795 -0.229 c 0.16 -0.156 0.24 -0.364 0.24 -0.625 c 0 -0.172 -0.033 -0.315 -0.1 -0.428 c -0.062 -0.113 -0.151 -0.203 -0.264 -0.27 c -0.109 -0.07 -0.239 -0.119 -0.387 -0.146 c -0.144 -0.031 -0.297 -0.047 -0.461 -0.047 l -0.059 0 l 0 -0.314 l 0.135 0 c 0.105 0 0.211 -0.01 0.32 -0.029 c 0.113 -0.023 0.215 -0.065 0.305 -0.123 c 0.094 -0.059 0.17 -0.137 0.229 -0.234 c 0.062 -0.098 0.094 -0.223 0.094 -0.375 c 0 -0.129 -0.022 -0.236 -0.064 -0.326 c -0.043 -0.094 -0.102 -0.168 -0.176 -0.223 c -0.07 -0.055 -0.154 -0.094 -0.252 -0.117 c -0.094 -0.027 -0.192 -0.041 -0.297 -0.041 c -0.211 0 -0.375 0.029 -0.492 0.088 c -0.117 0.059 -0.213 0.113 -0.287 0.164 l -0.164 -0.299 c 0.039 -0.027 0.088 -0.059 0.146 -0.094 c 0.062 -0.035 0.135 -0.068 0.217 -0.1 c 0.082 -0.031 0.172 -0.057 0.27 -0.076 c 0.101 -0.023 0.211 -0.035 0.328 -0.035 z" style="fill:#ececec;fill-opacity:1"/>
</svg>
